src/icons/gift.svg

<svg width="16" height="16" xmlns="http://www.w3.org/2000/svg"><path d="M13.5 4h-1.6c.1-.4.1-.8.1-1.2-.1-.3-.2-.6-.4-.9-.2-.3-.4-.5-.7-.6-.3-.1-.6-.3-.9-.3-.3 0-.6 0-.9.2-.7.2-1.2.7-1.6 1.3-.4-.6-.9-1.1-1.6-1.3-.3-.1-.6-.2-.9-.2-.3 0-.6.1-.9.3-.3.1-.5.3-.7.6-.2.2-.3.6-.4.9 0 .4 0 .8.1 1.2H1.5l-.5.5v9l.5.5h12l.5-.5v-9l-.5-.5zM7 13H2V5h5v8zm0-9H4v-.2c-.1-.3-.1-.5-.1-.8.1-.2.1-.4.3-.5.1-.2.3-.3.5-.4.1-.1.3-.1.5-.1s.4 0 .6.1c.3.1.6.3.8.6.2.3.4.6.4 1V4zm1-.3c0-.4.2-.7.4-1 .2-.3.5-.5.8-.6.2-.1.4-.1.6-.1.2 0 .4 0 .6.1.2.1.3.2.5.4.1.1.1.3.2.5 0 .3 0 .5-.1.8 0 .1 0 .1-.1.2H8v-.3zm5 9.3H8V5h5v8z"/></svg>

<svg width="16" height="16" viewBox="0 0 16 16" fill="none" xmlns="http://www.w3.org/2000/svg">
<path d="M13.5 4H11.9C12 3.6 12 3.2 12 2.8C11.9 2.5 11.8 2.2 11.6 1.9C11.4 1.6 11.2 1.4 10.9 1.3C10.6 1.2 10.3 1 10 1C9.7 1 9.4 1 9.1 1.2C8.4 1.4 7.9 1.9 7.5 2.5C7.1 1.9 6.6 1.4 5.9 1.2C5.6 1.1 5.3 1 5 1C4.7 1 4.4 1.1 4.1 1.3C3.8 1.4 3.6 1.6 3.4 1.9C3.2 2.1 3.1 2.5 3 2.8C3 3.2 3 3.6 3.1 4H1.5L1 4.5V13.5L1.5 14H13.5L14 13.5V4.5L13.5 4ZM7 13H2V5H7V13ZM7 4H4C4 3.9 4 3.9 4 3.8C3.9 3.5 3.9 3.3 3.9 3C4 2.8 4 2.6 4.2 2.5C4.3 2.3 4.5 2.2 4.7 2.1C4.8 2 5 2 5.2 2C5.4 2 5.6 2 5.8 2.1C6.1 2.2 6.4 2.4 6.6 2.7C6.8 3 7 3.3 7 3.7V4ZM8 3.7C8 3.3 8.2 3 8.4 2.7C8.6 2.4 8.9 2.2 9.2 2.1C9.4 2 9.6 2 9.8 2C10 2 10.2 2 10.4 2.1C10.6 2.2 10.7 2.3 10.9 2.5C11 2.6 11 2.8 11.1 3C11.1 3.3 11.1 3.5 11 3.8C11 3.9 11 3.9 10.9 4H8V3.7ZM13 13H8V5H13V13Z" fill="white"/>
</svg>
